obscura-ui/src/res/deco/deco-connecting-dark-2.svg

<svg xmlns="http://www.w3.org/2000/svg" xml:space="preserve" style="fill-rule:evenodd;clip-rule:evenodd;stroke-linejoin:round;stroke-miterlimit:2" viewBox="0 0 660 132"><path d="M79 985h660v132H79z" style="fill:none" transform="translate(-79 -985)"/><path d="M396 132V96h12v12h12v24h-24ZM48 12v12H36V12h12Zm0 0V0h12v12H48Zm180 72h-12V72h12v12Zm0 0h12v12h-12V84Zm144 12V84h12v12h-12Zm-24 24h12V96h12v24h12v12h-36v-12Zm-108 12v-24h12V96h24v12h-12v12h24V96h12v24h12v12h-72Zm36-36V84h12v12h-12Zm36 24V84h12v24h12V84h12v36h-12v12h-12v-12h-12ZM12 36H0V24h24v12h12v24h12v12H36v12h12V72h24V60h12V48H72v12H48V48h12V36h24V24H72V0h12v12h24v12h12v12h-12v12h12v12H96v24h24V60h12V36h12v12h12v12h12v24h36v12h-12v12h24v12h12v12h-24v-12h-12v12H84v-12H72v12H48v-12h12v-12h24V96H24v12h12v24H0v-12h12v-12H0V48h12V36Zm132 84h24v-12h-12V96h-36v12h-12v12h24v-12h12v12Zm432-84h-12V24h12v12Zm0 0h12v12h-12V36ZM432 96h-12V84h12v12Zm216-48V36h12v12h-12Zm-204 60h12V84h-12V72h12V60h12v12h12V60h12v24h12v24h24V84h-24V72h12V60h-12V48h12V36h24V12h12v36h-12v12h24v12h12v12h12V60h12V48h24v12h-12v12h24V48h12v12h12v60h-12v12h-24v-12h-12v12h-96v-12h-12v12h-36v-12h-12v12h-24v-12h12v-12Zm180-60V36h12v12h-12Zm-72 24h-12v24h24V84h-12V72Zm24 48h12v-12h-12v12Zm60-12V96h-12v12h12ZM432 96h12v12h-12V96Zm-36-24h12v12h-12V72ZM12 0h12v12H12V0Zm192 60v12h-12V60h12Zm60 12v12h-12V72h12Zm348-48v12h-12V24h12Z" style="fill:#454545"/><path d="M91 84H79V72h12v12Zm0 0h12v12H91V84ZM7 96v12H-5V96H7Zm0 0V84h12v12H7Zm60-36v12H55V60h12Zm12-24v24H67V36h12Zm0-24v12H55V12h24Zm0 12h12v12H79V24Zm96 60h-12V72h12v12Zm0 12v12h-12V96h12Zm0-12h24v12h-24V84Zm-48 12v12h-12V96h12Zm0 0V84h12v12h-12Zm168 0h-12V84h12v12Zm0 0h12v12h-12V96Zm24 12V84h12v24h-12Zm312-12h-12V84h24v24h-12V96Zm-60-84h-12V0h12v12Zm0 0h12v12h-12V12Zm24 60v12h-12V72h12Zm0-24h12v24h-12V48Zm0 0h-12V36h12v12Zm0 36h12v12h-12V84Zm-36-36h-12V36h12v12Zm0 0h12v12h-12V48Zm-12 36V72h24v12h-24Zm0 12h-24V84h24v12Zm-72-12h-12V72h12v12Zm0 0h12v24h-12V84Zm144-60v12h-12V24h12Zm0 0V12h12v12h-12ZM439 96h12v12h-12V96Zm-48-12h12v12h-12V84ZM43 96h12v12H43V96Zm72-36h12v12h-12V60Zm24 0h12v12h-12V60ZM7 0h12v12H7V0Zm0 36h12v12H7V36Zm0 24h12v12H7V60Zm636-24h12v12h-12V36Zm-84 60h12v12h-12V96Zm-12-84v12h-12V12h12Zm-36 72v12h-12V84h12Zm120-36v12h-12V48h12Zm24 12v12h-12V60h12Z" style="fill:#ff6025" transform="translate(5 24)"/></svg>

<?xml version="1.0" encoding="UTF-8" standalone="no"?>
<!DOCTYPE svg PUBLIC "-//W3C//DTD SVG 1.1//EN" "http://www.w3.org/Graphics/SVG/1.1/DTD/svg11.dtd">
<svg width="100%" height="100%" viewBox="0 0 660 132" version="1.1" xmlns="http://www.w3.org/2000/svg" xmlns:xlink="http://www.w3.org/1999/xlink" xml:space="preserve" xmlns:serif="http://www.serif.com/" style="fill-rule:evenodd;clip-rule:evenodd;stroke-linejoin:round;stroke-miterlimit:2;">
    <g transform="matrix(1,0,0,1,-705,-783)">
        <g id="Connecting-2--Dark-" serif:id="Connecting 2 (Dark)" transform="matrix(1,0,0,1,626,-202)">
            <rect x="79" y="985" width="660" height="132" style="fill:none;"/>
            <g transform="matrix(1,0,0,1,79,985)">
                <path d="M396,132L396,96L408,96L408,108L420,108L420,132L396,132ZM48,12L48,24L36,24L36,12L48,12ZM48,12L48,0L60,0L60,12L48,12ZM228,84L216,84L216,72L228,72L228,84ZM228,84L240,84L240,96L228,96L228,84ZM372,96L372,84L384,84L384,96L372,96ZM348,120L360,120L360,96L372,96L372,120L384,120L384,132L348,132L348,120ZM240,132L240,108L252,108L252,96L276,96L276,108L264,108L264,120L288,120L288,96L300,96L300,120L312,120L312,132L240,132ZM276,96L276,84L288,84L288,96L276,96ZM312,120L312,84L324,84L324,108L336,108L336,84L348,84L348,120L336,120L336,132L324,132L324,120L312,120ZM12,36L0,36L0,24L24,24L24,36L36,36L36,60L48,60L48,72L36,72L36,84L48,84L48,72L72,72L72,60L84,60L84,48L72,48L72,60L48,60L48,48L60,48L60,36L84,36L84,24L72,24L72,0L84,0L84,12L108,12L108,24L120,24L120,36L108,36L108,48L120,48L120,60L96,60L96,84L120,84L120,60L132,60L132,36L144,36L144,48L156,48L156,60L168,60L168,84L204,84L204,96L192,96L192,108L216,108L216,120L228,120L228,132L204,132L204,120L192,120L192,132L84,132L84,120L72,120L72,132L48,132L48,120L60,120L60,108L84,108L84,96L24,96L24,108L36,108L36,132L0,132L0,120L12,120L12,108L0,108L0,48L12,48L12,36ZM144,120L168,120L168,108L156,108L156,96L120,96L120,108L108,108L108,120L132,120L132,108L144,108L144,120ZM576,36L564,36L564,24L576,24L576,36ZM576,36L588,36L588,48L576,48L576,36ZM432,96L420,96L420,84L432,84L432,96ZM648,48L648,36L660,36L660,48L648,48ZM444,108L456,108L456,84L444,84L444,72L456,72L456,60L468,60L468,72L480,72L480,60L492,60L492,84L504,84L504,108L528,108L528,84L504,84L504,72L516,72L516,60L504,60L504,48L516,48L516,36L540,36L540,12L552,12L552,48L540,48L540,60L564,60L564,72L576,72L576,84L588,84L588,60L600,60L600,48L624,48L624,60L612,60L612,72L636,72L636,48L648,48L648,60L660,60L660,120L648,120L648,132L624,132L624,120L612,120L612,132L516,132L516,120L504,120L504,132L468,132L468,120L456,120L456,132L432,132L432,120L444,120L444,108ZM624,48L624,36L636,36L636,48L624,48ZM552,72L540,72L540,96L564,96L564,84L552,84L552,72ZM576,120L588,120L588,108L576,108L576,120ZM636,108L636,96L624,96L624,108L636,108ZM432,96L444,96L444,108L432,108L432,96ZM396,72L408,72L408,84L396,84L396,72ZM12,0L24,0L24,12L12,12L12,0ZM204,60L204,72L192,72L192,60L204,60ZM264,72L264,84L252,84L252,72L264,72ZM612,24L612,36L600,36L600,24L612,24Z" style="fill:rgb(69,69,69);"/>
            </g>
            <g transform="matrix(1,0,0,1,84,1009)">
                <path d="M91,84L103,84L103,96L91,96L91,84ZM91,84L79,84L79,72L91,72L91,84ZM7,96L7,84L19,84L19,96L7,96ZM7,96L7,108L-5,108L-5,96L7,96ZM79,36L79,60L67,60L67,36L79,36ZM79,24L91,24L91,36L79,36L79,24ZM67,60L67,72L55,72L55,60L67,60ZM79,24L55,24L55,12L79,12L79,24ZM175,96L175,108L163,108L163,96L175,96ZM175,84L199,84L199,96L175,96L175,84ZM175,84L163,84L163,72L175,72L175,84ZM127,96L127,84L139,84L139,96L127,96ZM127,96L127,108L115,108L115,96L127,96ZM295,96L307,96L307,108L295,108L295,96ZM295,96L283,96L283,84L295,84L295,96ZM571,12L559,12L559,0L571,0L571,12ZM571,12L583,12L583,24L571,24L571,12ZM595,48L607,48L607,72L595,72L595,48ZM595,72L595,84L583,84L583,72L595,72ZM595,48L583,48L583,36L595,36L595,48ZM595,84L607,84L607,96L595,96L595,84ZM559,48L571,48L571,60L559,60L559,48ZM559,48L547,48L547,36L559,36L559,48ZM547,84L547,72L571,72L571,84L547,84ZM547,84L547,96L523,96L523,84L547,84ZM475,84L463,84L463,72L475,72L475,84ZM475,84L487,84L487,108L475,108L475,84ZM619,24L619,36L607,36L607,24L619,24ZM619,24L619,12L631,12L631,24L619,24ZM319,108L319,84L331,84L331,108L319,108ZM631,96L619,96L619,84L643,84L643,108L631,108L631,96ZM439,96L451,96L451,108L439,108L439,96ZM391,84L403,84L403,96L391,96L391,84ZM43,96L55,96L55,108L43,108L43,96ZM115,60L127,60L127,72L115,72L115,60ZM139,60L151,60L151,72L139,72L139,60ZM7,0L19,0L19,12L7,12L7,0ZM7,36L19,36L19,48L7,48L7,36ZM7,60L19,60L19,72L7,72L7,60ZM643,36L655,36L655,48L643,48L643,36ZM559,96L571,96L571,108L559,108L559,96ZM547,12L547,24L535,24L535,12L547,12ZM511,84L511,96L499,96L499,84L511,84ZM631,48L631,60L619,60L619,48L631,48ZM655,60L655,72L643,72L643,60L655,60Z" style="fill:rgb(255,96,37);"/>
            </g>
        </g>
    </g>
</svg>
